X:185
T: Little House Under the Hill
S: B.Flaherty
Z: B.Black
L: 1/8
M: 6/8
R: jig
K: G
B/c/ | dBd gdB | ded dge | dBd gdB | cAB cde |
dBd gdB | ded def | gaf gdB | cAB c2 :|
d/e/ ||dcB G3 | DGB DGB | dcB G3 | cAB cde |
dcB G3 | DGB d2 g | ece dBd | cAB c2 :|
d/e/ || dcB gdB | ded d2 e | dcB gdB | cAB cde |
dcB gdB | ded def | gaf gdB | cAB c2 :|
